icons/octoface-24.svg

<svg width="24" height="24" viewBox="0 0 24 24" fill="none" xmlns="http://www.w3.org/2000/svg">
<path d="M7.75 11C7.05964 11 6.5 11.5596 6.5 12.25V13.75C6.5 14.4404 7.05964 15 7.75 15C8.44036 15 9 14.4404 9 13.75V12.25C9 11.5596 8.44036 11 7.75 11Z" fill="#24292E"/>
<path d="M9.02071 15.4995C8.99655 15.2244 9.22386 15 9.5 15H14.5C14.7761 15 15.0034 15.2244 14.9793 15.4995C14.8637 16.8158 14.2213 18 12 18C9.77865 18 9.13631 16.8158 9.02071 15.4995Z" fill="#24292E"/>
<path d="M16.25 11C15.5596 11 15 11.5596 15 12.25V13.75C15 14.4404 15.5596 15 16.25 15C16.9404 15 17.5 14.4404 17.5 13.75V12.25C17.5 11.5596 16.9404 11 16.25 11Z" fill="#24292E"/>
<path fill-rule="evenodd" clip-rule="evenodd" d="M21.2552 3.81992C20.9969 2.90911 20.0545 2.35353 19.1138 2.62454C18.5572 2.78488 17.7084 3.06532 16.8497 3.49057C16.0695 3.87697 15.203 4.42071 14.5569 5.16758C13.7749 5.05802 12.9243 5 12 5C11.0709 5 10.2164 5.05862 9.43096 5.16928C8.78625 4.42957 7.92563 3.89019 7.15026 3.5062C6.29158 3.08094 5.44279 2.80051 4.88622 2.64017C3.94547 2.36916 3.00314 2.92474 2.74484 3.83554C2.54378 4.54448 2.23205 5.77315 2.05583 7.12772C1.92956 8.09828 1.8637 9.19748 1.98936 10.2402C1.25425 11.882 1 13.7343 1 15.5265C1 19.9152 3.13043 23 12 23C20.8696 23 23 19.947 23 15.5265C23 13.7331 22.7454 11.8795 22.0091 10.2369C22.1368 9.1905 22.0709 8.08647 21.9442 7.11209C21.768 5.75753 21.4562 4.52886 21.2552 3.81992ZM20.4999 14C21 17.5 19 20.5 11.9999 20.5C4.99974 20.5 2.99999 17.5 3.4999 14C4.08255 10 6.49981 8 11.9999 8C17.4999 8 19.9284 10 20.4999 14Z" fill="#24292E"/>
</svg>

<svg xmlns="http://www.w3.org/2000/svg" width="24" height="24" viewBox="0 0 24 24"><path d="M7.75 11c-.69 0-1.25.56-1.25 1.25v1.5a1.25 1.25 0 102.5 0v-1.5C9 11.56 8.44 11 7.75 11zm1.27 4.5a.469.469 0 01.48-.5h5a.47.47 0 01.48.5c-.116 1.316-.759 2.5-2.98 2.5s-2.864-1.184-2.98-2.5zm7.23-4.5c-.69 0-1.25.56-1.25 1.25v1.5a1.25 1.25 0 102.5 0v-1.5c0-.69-.56-1.25-1.25-1.25z"/><path fill-rule="evenodd" d="M21.255 3.82a1.725 1.725 0 00-2.141-1.195c-.557.16-1.406.44-2.264.866-.78.386-1.647.93-2.293 1.677A18.442 18.442 0 0012 5c-.93 0-1.784.059-2.569.17-.645-.74-1.505-1.28-2.28-1.664a13.876 13.876 0 00-2.265-.866 1.725 1.725 0 00-2.141 1.196 23.645 23.645 0 00-.69 3.292c-.125.97-.191 2.07-.066 3.112C1.254 11.882 1 13.734 1 15.527 1 19.915 3.13 23 12 23c8.87 0 11-3.053 11-7.473 0-1.794-.255-3.647-.99-5.29.127-1.046.06-2.15-.066-3.125a23.652 23.652 0 00-.689-3.292zM20.5 14c.5 3.5-1.5 6.5-8.5 6.5s-9-3-8.5-6.5c.583-4 3-6 8.5-6s7.928 2 8.5 6z"/></svg>
